svg/Pictogram/pictograms-recycle-plastic-1-pet.svg

<?xml version="1.0" encoding="UTF-8" standalone="no"?>
<!-- Created with Inkscape (http://www.inkscape.org/) --><svg height="89" id="svg2241" inkscape:export-filename="M:\recyclage4.jpg.png" inkscape:export-xdpi="104" inkscape:export-ydpi="104" inkscape:output_extension="org.inkscape.output.svg.inkscape" inkscape:version="0.46" sodipodi:docbase="M:\" sodipodi:docname="pictograms-recycle-plastic-1-PET.svg" sodipodi:modified="TRUE" sodipodi:version="0.32" version="1.0" width="89" xmlns="http://www.w3.org/2000/svg" xmlns:cc="http://creativecommons.org/ns#" xmlns:dc="http://purl.org/dc/elements/1.1/" xmlns:inkscape="http://www.inkscape.org/namespaces/inkscape" xmlns:rdf="http://www.w3.org/1999/02/22-rdf-syntax-ns#" xmlns:sodipodi="http://sodipodi.sourceforge.net/DTD/sodipodi-0.dtd" xmlns:svg="http://www.w3.org/2000/svg">
  <metadata>
    <rdf:RDF xmlns:cc="http://web.resource.org/cc/" xmlns:dc="http://purl.org/dc/elements/1.1/" xmlns:rdf="http://www.w3.org/1999/02/22-rdf-syntax-ns#">
      <cc:Work rdf:about="">
        <dc:title></dc:title>
        <dc:description></dc:description>
        <dc:subject>
          <rdf:Bag>
            <rdf:li>unsorted</rdf:li>
          </rdf:Bag>
        </dc:subject>
        <dc:publisher>
          <cc:Agent rdf:about="http://www.openclipart.org/">
            <dc:title>Open Clip Art Library, Source: Open Clip Art Library, Source: Open Clip Art Library</dc:title>
          </cc:Agent>
        </dc:publisher>
        <dc:creator>
          <cc:Agent>
            <dc:title></dc:title>
          </cc:Agent>
        </dc:creator>
        <dc:rights>
          <cc:Agent>
            <dc:title></dc:title>
          </cc:Agent>
        </dc:rights>
        <dc:date></dc:date>
        <dc:format>image/svg+xml</dc:format>
        <dc:type rdf:resource="http://purl.org/dc/dcmitype/StillImage"/>
        <cc:license rdf:resource="http://en.wikipedia.org/wiki/Public_domain"/>
        <dc:language>en</dc:language>
      </cc:Work>
    </rdf:RDF>
  </metadata>
  <defs id="defs2244">
    <inkscape:perspective id="perspective49" inkscape:persp3d-origin="165 : 110 : 1" inkscape:vp_x="0 : 165 : 1" inkscape:vp_y="0 : 1000 : 0" inkscape:vp_z="330 : 165 : 1" sodipodi:type="inkscape:persp3d"/>
  </defs>
  <sodipodi:namedview bordercolor="#666666" borderopacity="1.0" gridtolerance="10.0" guidetolerance="10.0" id="base" inkscape:current-layer="svg2241" inkscape:cx="13.493994" inkscape:cy="73.389647" inkscape:guide-bbox="true" inkscape:pageopacity="0.0" inkscape:pageshadow="2" inkscape:window-height="692" inkscape:window-width="724" inkscape:window-x="-60" inkscape:window-y="255" inkscape:zoom="0.72898565" objecttolerance="10.0" pagecolor="#ffffff" showgrid="false" showguides="true"/>
  <path d="M 53.592922,67.133558 C 53.338995,66.838162 52.265079,64.935861 51.206444,62.906221 L 49.281656,59.215971 L 51.193309,55.387049 C 53.289946,51.187619 53.780294,50.483962 54.610051,50.483962 C 55.443068,50.483962 55.800904,51.446217 55.800904,53.686289 L 55.800904,55.701347 L 61.649648,55.701347 C 65.002969,55.701347 68.089917,55.5524 68.884808,55.352243 C 70.663595,54.90434 72.21391,53.445031 72.656292,51.802147 C 73.332017,49.292701 73.132364,48.853269 64.701824,34.294469 C 63.308872,31.88896 62.169183,29.57609 62.169183,29.154755 C 62.169183,28.104793 62.641252,27.618303 64.868956,26.372499 C 66.491535,25.4651 66.895035,25.352763 67.50751,25.6379 C 67.962039,25.849508 69.085094,27.476712 70.531595,30.019531 C 71.797164,32.244288 74.374399,36.729361 76.258783,39.986357 C 78.285931,43.490107 79.836795,46.541191 80.05684,47.458428 C 80.627165,49.835819 80.307032,53.37227 79.337151,55.408664 C 78.31009,57.565114 76.233068,59.742752 74.240027,60.7527 C 71.351093,62.216633 69.715909,62.453257 62.488333,62.453257 L 55.800904,62.453257 L 55.800904,64.57649 C 55.800904,65.74427 55.717076,66.918182 55.614616,67.185183 C 55.365842,67.833477 54.168295,67.802897 53.592922,67.133558 z M 20.967186,62.164674 C 19.223496,61.737137 16.72214,60.241292 15.286893,58.767776 C 12.653997,56.064686 11.544886,52.47816 12.170453,48.690201 C 12.636538,45.867955 13.350239,44.297847 16.774458,38.561645 C 18.320869,35.971115 19.586113,33.740057 19.586113,33.603736 C 19.586113,33.467412 18.85649,32.944102 17.964728,32.440821 C 15.85087,31.247835 15.451323,30.76577 15.892754,29.940945 C 16.079205,29.592561 16.537638,29.293694 16.911494,29.276802 C 18.504874,29.204799 22.931037,29.337701 24.395391,29.501518 L 25.982167,29.679032 L 28.461883,33.353903 C 30.997026,37.110914 31.394238,38.250827 30.360947,38.803827 C 29.906246,39.047175 29.342486,38.882247 27.761885,38.043461 L 25.743475,36.972344 L 25.309987,37.666778 C 24.060518,39.668385 20.625266,45.605569 19.999082,46.845674 C 18.937721,48.947608 19.002411,51.23738 20.168643,52.847315 C 21.830445,55.141365 22.260557,55.217383 34.572921,55.393123 C 47.28081,55.574503 46.286849,55.244811 46.286849,59.278617 C 46.286849,61.474979 46.206692,61.86075 45.693215,62.135555 C 45.009155,62.501653 22.449893,62.528222 20.967186,62.164674 z M 27.536046,27.220447 C 25.493445,26.02077 25.110403,25.638443 25.110403,24.799318 C 25.110403,24.386544 27.627881,19.675709 30.707679,14.3254 C 36.789017,3.7607334 37.806134,2.4239062 40.922705,0.89945342 C 42.596461,0.080745048 43.041452,0.0018308723 45.994378,4.5912831e-05 C 49.077843,-0.0018182282 49.330171,0.048227543 51.316319,1.0555727 C 54.361876,2.600235 56.309351,4.9048504 59.637217,10.902403 C 61.156396,13.640303 62.537469,16.065434 62.706267,16.291584 C 62.952521,16.621509 63.343939,16.49263 64.686927,15.639421 C 67.128283,14.088417 68.452774,14.310169 67.963595,16.188014 C 67.750637,17.005507 63.627175,23.49859 63.12316,23.810088 C 62.625087,24.117915 54.469805,24.502965 53.690021,24.255471 C 53.258371,24.11847 53.038759,23.793725 53.038759,23.292432 C 53.038759,22.701017 53.437266,22.287265 54.866314,21.394957 C 55.871468,20.767331 56.700111,20.130709 56.707744,19.98024 C 56.726444,19.611527 51.630648,10.699398 50.659303,9.4020125 C 49.789645,8.240448 47.820527,7.2238371 46.440302,7.2238371 C 45.200967,7.2238371 43.247437,8.163769 42.243176,9.243265 C 41.791532,9.7287442 39.197755,13.992957 36.479227,18.719294 C 33.760697,23.445631 31.307157,27.485269 31.026913,27.696266 C 30.242025,28.287212 29.08348,28.129297 27.536046,27.220447 z" id="path2250" sodipodi:nodetypes="ccccscccssssssssssscccsccssssssscccscccsssssccsssssssssssssssssssc" style="fill:#000000"/>
  <path d="M 51.00573,46.744095 L 41.333708,46.744095 L 41.333708,42.894801 L 44.389055,42.894801 L 44.389055,31.243284 L 41.333708,31.243284 L 41.333708,27.645675 C 41.800764,27.645694 42.248362,27.603746 42.676504,27.519833 C 43.104638,27.435957 43.461418,27.290375 43.746849,27.083086 C 44.084163,26.836356 44.337154,26.515582 44.50582,26.120762 C 44.674474,25.725984 44.771778,25.232486 44.797732,24.640265 L 48.018496,24.640265 L 48.018496,42.894801 L 51.00573,42.894801 L 51.00573,46.744095 z" id="text2252" style="font-size:24.58098412px;font-style:normal;font-variant:normal;font-weight:bold;font-stretch:normal;text-align:center;line-height:100%;text-anchor:middle;fill:#000000;fill-opacity:1;stroke:none;stroke-width:1px;stroke-linecap:butt;stroke-linejoin:miter;stroke-opacity:1;font-family:Verdana"/>
  <path d="M 37.011487,76.071568 C 37.01147,76.912235 36.878498,77.733977 36.612567,78.536791 C 36.346606,79.339627 35.966684,80.014253 35.472798,80.56067 C 34.796521,81.300455 34.042374,81.859491 33.210356,82.237779 C 32.378312,82.616081 31.343023,82.805229 30.104484,82.805222 L 27.380435,82.805222 L 27.380435,88.920995 L 23.00372,88.920995 L 23.00372,70.144944 L 30.207063,70.144944 C 31.286035,70.144963 32.195949,70.247942 32.936811,70.453884 C 33.677648,70.659864 34.333015,70.968804 34.902914,71.380707 C 35.586761,71.876712 36.109154,72.511406 36.470097,73.284794 C 36.831007,74.058212 37.01147,74.987136 37.011487,76.071568 L 37.011487,76.071568 z M 32.486602,76.185057 C 32.486591,75.655456 32.357417,75.199401 32.09908,74.816889 C 31.840721,74.434405 31.540583,74.167497 31.198662,74.016164 C 30.742744,73.814422 30.298235,73.703035 29.865133,73.682003 C 29.432011,73.661002 28.854529,73.650494 28.132682,73.650479 L 27.380435,73.650479 L 27.380435,79.274467 L 28.634181,79.274467 C 29.378822,79.274477 29.992397,79.224037 30.474909,79.123149 C 30.957401,79.02228 31.362019,78.820523 31.688764,78.517876 C 31.969895,78.248878 32.173154,77.927326 32.29854,77.553224 C 32.423903,77.179144 32.486591,76.723089 32.486602,76.185057 L 32.486602,76.185057 z M 52.375579,88.920995 L 40.100261,88.920995 L 40.100261,70.144944 L 52.375579,70.144944 L 52.375579,73.776577 L 44.454181,73.776577 L 44.454181,77.017306 L 51.805694,77.017306 L 51.805694,80.64894 L 44.454181,80.64894 L 44.454181,85.289361 L 52.375579,85.289361 L 52.375579,88.920995 z M 69.335348,73.776577 L 64.035421,73.776577 L 64.035421,88.920995 L 59.658706,88.920995 L 59.658706,73.776577 L 54.358777,73.776577 L 54.358777,70.144944 L 69.335348,70.144944 L 69.335348,73.776577 z" id="text2256" style="font-size:24.55236053px;font-style:normal;font-variant:normal;font-weight:bold;font-stretch:normal;text-align:center;line-height:100%;text-anchor:middle;fill:#000000;fill-opacity:1;stroke:none;stroke-width:1px;stroke-linecap:butt;stroke-linejoin:miter;stroke-opacity:1;font-family:Verdana"/>
</svg>

<svg xmlns="http://www.w3.org/2000/svg" viewBox="0 0 89 89"><path d="m53.593 67.13c-.254-.295-1.328-2.198-2.386-4.227l-1.925-3.69 1.912-3.829c2.097-4.199 2.587-4.903 3.417-4.903.833 0 1.191.962 1.191 3.202v2.02h5.849c3.353 0 6.44-.149 7.235-.349 1.779-.448 3.329-1.907 3.771-3.55.676-2.509.476-2.949-7.954-17.508-1.393-2.406-2.533-4.718-2.533-5.14 0-1.05.472-1.536 2.7-2.782 1.623-.907 2.026-1.02 2.639-.735.455.212 1.578 1.839 3.02 4.382 1.266 2.225 3.843 6.71 5.727 9.967 2.027 3.504 3.578 6.555 3.798 7.472.57 2.377.25 5.914-.72 7.95-1.027 2.156-3.104 4.334-5.097 5.344-2.889 1.464-4.524 1.701-11.752 1.701h-6.687v2.123c0 1.168-.084 2.342-.186 2.609-.249.648-1.446.618-2.02-.052m-32.626-4.969c-1.744-.428-4.245-1.923-5.68-3.397-2.633-2.703-3.742-6.29-3.116-10.08.466-2.822 1.18-4.392 4.604-10.129 1.546-2.591 2.812-4.822 2.812-4.958 0-.136-.73-.66-1.621-1.163-2.114-1.193-2.513-1.675-2.072-2.5.186-.348.645-.647 1.019-.664 1.593-.072 6.02.061 7.484.225l1.587.178 2.48 3.675c2.535 3.757 2.932 4.897 1.899 5.45-.455.243-1.018.078-2.599-.76l-2.02-1.071-.433.694c-1.249 2-4.685 7.939-5.311 9.179-1.061 2.102-.997 4.392.17 6 1.662 2.294 2.092 2.37 14.404 2.546 12.708.181 11.714-.148 11.714 3.885 0 2.196-.08 2.582-.594 2.857-.684.366-23.24.393-24.726.029m6.569-34.944c-2.043-1.2-2.426-1.582-2.426-2.421 0-.413 2.517-5.124 5.597-10.474 6.081-10.565 7.098-11.901 10.215-13.426 1.674-.819 2.119-.898 5.072-.899 3.083-.002 3.336.048 5.322 1.056 3.046 1.545 4.993 3.849 8.321 9.847 1.519 2.738 2.9 5.163 3.069 5.389.246.33.638.201 1.981-.652 2.441-1.551 3.766-1.329 3.277.549-.213.817-4.336 7.311-4.84 7.622-.498.308-8.653.693-9.433.445-.432-.137-.651-.462-.651-.963 0-.591.399-1.01 1.828-1.897 1.01-.628 1.834-1.264 1.841-1.415.019-.369-5.077-9.281-6.05-10.578-.87-1.162-2.839-2.178-4.219-2.178-1.239 0-3.193.94-4.197 2.02-.452.485-3.045 4.75-5.764 9.476-2.719 4.726-5.172 8.766-5.452 8.977-.785.591-1.943.433-3.491-.476"/><path d="m51.01 46.744h-9.672v-3.849h3.055v-11.652h-3.055v-3.598c.467 0 .915-.042 1.343-.126.428-.084.785-.229 1.07-.437.337-.247.59-.568.759-.962.169-.395.266-.888.292-1.48h3.221v18.255h2.987v3.849"/><path d="m37.01 76.07c0 .841-.133 1.662-.399 2.465-.266.803-.646 1.477-1.14 2.024-.676.74-1.43 1.299-2.262 1.677-.832.378-1.867.567-3.106.567h-2.724v6.116h-4.377v-18.776h7.203c1.079 0 1.989.103 2.73.309.741.206 1.396.515 1.966.927.684.496 1.206 1.131 1.567 1.904.361.773.541 1.702.541 2.787m-4.525.113c0-.53-.129-.986-.388-1.368-.258-.382-.558-.649-.9-.801-.456-.202-.9-.313-1.334-.334-.433-.021-1.01-.032-1.732-.032h-.752v5.624h1.254c.745 0 1.358-.05 1.841-.151.482-.101.887-.303 1.214-.605.281-.269.484-.591.61-.965.125-.374.188-.83.188-1.368m19.889 12.736h-12.275v-18.776h12.275v3.632h-7.921v3.241h7.352v3.632h-7.352v4.64h7.921v3.632m16.96-15.14h-5.3v15.14h-4.377v-15.14h-5.3v-3.632h14.977v3.632"/></svg>
